X:1
T:The Little Rosewood Casket
M:4/4
L:1/4
K:D
 z2 z D/2F/2| A A G/2 E3/2| D/2 F3/2- F D/2F/2| A A G E| F3 D/2F/2|\
 A d B/2 d3/2| A/2 F3/2- F D/2F/2| E G C E| D3 z|
